!!!!SEGMENT: pl-wtm--r-609-2-m--003_moniuszko-stanislaw--libella-albo-zemsta-owadu-divertisement.krn
!!!cenid: 18xx:3003
!!!COM: Moniuszko, Stanisław
!!!COM-rismid: pe30008351
!!!CDT: 1819/05/05-1872/06/04
!!!CNT: Polish
!!!GTL: Libella albo Zemsta Owadu
!!!OTL: Divertisement
!!!PDT: 1871
!!!AGN: Secular
!!!SMS-siglum: PL-Wtm
!!!SMS-shelfmark: R 609/2/M
!!!SMS-shelfwork: 003 G
!!!SMS-variant:
!!!SMS-altvar:
!!!NIFC-rismid: 1001090850
!!!URL-scan: http://repozytorium.nifc.pl/skany/pl-wtm-nut--r609-b-m
!!!ONB-nifc: UWAGA: obsada: vl, pf. Skan 0007
!!!OMD: Molto Allegro.
!!!key:
**kern	**kern	**dynam	**kern	**dynam
*part2	*part2	*part2	*part1	*part1
*staff3	*staff2	*	*staff1	*
*Iforte	*Iempty	*	*Ivioln	*
*I"fortepian	*	*	*I"skrzypce	*
*clefF4	*clefG2	*	*clefG2	*
*k[f#c#g#]	*k[f#c#g#]	*	*k[f#c#g#]	*
*A:	*A:	*	*A:	*
*M4/4	*M4/4	*	*M4/4	*
*met(c)	*met(c)	*	*met(c)	*
=1	=1	=1	=1	=1
*all\right	*all\right	*	*all\right	*
!	!LO:TX:t=P:problem:kolejność znaków f# cc# g#	!LO:DY:rj	!LO:TX:t=P:problem:kolejność znaków f# cc# g#	!LO:DY:rj
8E\ 8EE\	8e/ 8B/ 8G#/	sff	16e/LL	f
!	!	!	!LO:TX:b:i:t=„Blumen un Insecten um aman sich......	!
.	.	.	16d#X/	.
16E\LL	16e/LL	.	16e/	.
16G#\JJ	16g#/JJ	.	16g#/JJ	.
!LO:TX:a:t=col 1m	!	!	!	!
8B\Lyy	8b/L	.	16b/LL	.
.	.	.	16a/	.
16G#\Lyy	16g#/L	.	16g#/	.
16B\JJyy	16b/JJ	.	16b/JJ	.
8d\Lyy	8dd\L	.	16dd\LL	.
.	.	.	16ee\	.
16d#X\Lyy	16dd#X\L	.	16dd#X\	.
16e\JJyy	16ee\JJ	.	16ee\JJ	.
16f#\LLyy	16ff#\LL	.	16ff#\LL	.
16e\yy	16ee\	.	16ee\	.
16g#\yy	16gg#\	.	16gg#\	.
16a\JJyy	16aa\JJ	.	16aa\JJ	.
=2-	=2-	=2	=2	=2
8b\Lyy	8bb\L	.	16bb\LL	.
.	.	.	16ccc#\	.
16b\Lyy	16bb\L	.	16bb\	.
16cc#\JJyy	16ccc#\JJ	.	16ccc#\JJ	.
8dd\Lyy	8ddd\L	.	16ddd\LL	.
.	.	.	16ccc#\	.
16dd\Lyy	16ddd\L	.	16ddd\	.
16ee\JJyy	16eee\JJ	.	16eee\JJ	.
8ff#\Lyy	8fff#\L	.	16fff#\LL	.
.	.	.	16eee\	.
16dd\Lyy	16ddd\L	.	16ddd\	.
16cc#\JJyy	16ccc#\JJ	.	16ccc#\JJ	.
8b\Lyy	8bb\L	.	16bb\LL	.
.	.	.	16aa\	.
16g#\Lyy	16gg#\L	.	16gg#\	.
16b\JJyy	16bb\JJ	.	16aa\JJ	.
=3-	=3-	=3	=3	=3
8dd\Lyy	8ddd\L	.	16ddd\LL	.
.	.	.	16ccc#\	.
16b\Lyy	16bb\L	.	16bb\	.
16a\JJyy	16aa\JJ	.	16aa\JJ	.
8g#\Lyy	8gg#\L	.	16gg#\LL	.
.	.	.	16ff#\	.
16e\Lyy	16ee\L	.	16ee\	.
16f#\JJyy	16ff#\JJ	.	16ff#\JJ	.
16g#\LLyy	16gg#\LL	.	16gg#\LL	.
16f#\yy	16ff#\	.	16ff#\	.
16e\yy	16ee\	.	16ee\	.
!LO:TX:a:t=col Vni	!LO:TX:a:t=col Vni	!	!	!
16d\JJyy	16ddny\JJyy	.	16dd\JJ	.
16c#\LLyy	16cc#\LLyy	.	16cc#\LL	.
16B\yy	16b\yy	.	16b\	.
16c#\yy	16cc#\yy	.	16cc#\	.
16d\JJyy	16dd\JJyy	.	16dd\JJ	.
=4-	=4-	=4-	=4-	=4-
16f#\LLyy	16ff#\LLyy	.	16ff#\LL	.
16e\yy	16ee\yy	.	16ee\	.
16d\yy	16dd\yy	.	16dd\	.
16e\JJyy	16ee\JJyy	.	16ee\JJ	.
16d\LLyy	16dd\LLyy	.	16dd\LL	.
16c#\yy	16cc#\yy	.	16cc#\	.
16B\yy	16b\yy	.	16b\	.
16c#\JJyy	16cc#\JJyy	.	16cc#\JJ	.
!!LO:LB:g=original
16B\LLyy	16b/LLyy	.	16b/LL	.
16A\yy	16a/yy	.	16a/	.
16G#\yy	16g#/yy	.	16g#/	.
16F#\JJyy	16f#/JJyy	.	16f#/JJ	.
16E/LL	16e/LL	.	16e/LL	.
16G#/	16g#/	.	16g#/	.
16B/	16b/	.	16b/	.
16e/JJ	16ee/JJ	.	16ee/JJ	.
=5	=5	=5	=5	=5
8g#\	8gg#/	.	8gg#'\	.
*tremolo	*	*	*	*
8e\L 8E\	8ee\L 8g#^\	.	8gg#^\L	.
8e\ 8E\	8ff#\ 8ee\ 8g#^\	.	8aa^\	.
8e\J 8E\	8ff##X\J 8ee\ 8a#X^\	.	8aa#X^\J	.
*2\right	*	*	*	*
8e\L 8E\	8gg#\L 8ee\ 8b^\	.	8bb^\L	.
8e\ 8E\	8aa\ 8ff##\ 8ee\ 8cc#^\	.	8ccc#^\	.
8e\ 8E\	8bb\ 8gg#\ 8ee\ 8dd^\	.	8ddd^\	.
8e\J 8E\	8ccc#\J 8aa#X\ 8ee\ 8cc#^\	.	8eee^\J	.
=6	=6	=6	=6	=6
!	!	!LO:DY:rj	!	!LO:DY:rj
*	*tremolo	*	*tremolo	*
32BB/LLL 32EE/	32bb\LLL 32gg#\ 32dd\	fff	32fff#\LLL	fff
32E/	32b\	.	32fff#\	.
32BB/ 32EE/	32bb\ 32gg#\ 32dd\	.	32fff#\	.
32E/	32b\	.	32fff#\	.
32BB/ 32EE/	32bb\ 32gg#\ 32dd\	.	32fff#\	.
32E/	32b\	.	32fff#\	.
32BB/ 32EE/	32bb\ 32gg#\ 32dd\	.	32fff#\	.
32E/	32b\	.	32fff#\	.
32BB/ 32EE/	32bb\ 32gg#\ 32dd\	.	32fff#\	.
32E/	32b\	.	32fff#\	.
32BB/ 32EE/	32bb\ 32gg#\ 32dd\	.	32fff#\	.
32E/	32b\	.	32fff#\	.
32BB/ 32EE/	32bb\ 32gg#\ 32dd\	.	32fff#\	.
32E/	32b\	.	32fff#\	.
32BB/ 32EE/	32bb\ 32gg#\ 32dd\	.	32fff#\	.
32E/JJJ	32b\JJJ	.	32fff#\	.
*rep	*rep	*	*	*
32BB/LLL 32EE/	32bb\LLL 32gg#\ 32dd\	.	32fff#\	.
32E/	32b\	.	32fff#\	.
32BB/ 32EE/	32bb\ 32gg#\ 32dd\	.	32fff#\	.
32E/	32b\	.	32fff#\	.
32BB/ 32EE/	32bb\ 32gg#\ 32dd\	.	32fff#\	.
32E/	32b\	.	32fff#\	.
32BB/ 32EE/	32bb\ 32gg#\ 32dd\	.	32fff#\	.
32E/	32b\	.	32fff#\	.
32BB/ 32EE/	32bb\ 32gg#\ 32dd\	.	32fff#\	.
32E/	32b\	.	32fff#\	.
32BB/ 32EE/	32bb\ 32gg#\ 32dd\	.	32fff#\	.
32E/	32b\	.	32fff#\	.
32BB/ 32EE/	32bb\ 32gg#\ 32dd\	.	32fff#\	.
32E/	32b\	.	32fff#\	.
32BB/ 32EE/	32bb\ 32gg#\ 32dd\	.	32fff#\	.
32E/JJJ	32b\JJJ	.	32fff#\JJJ	.
*Xtremolo	*Xtremolo	*	*Xtremolo	*
*Xrep	*Xrep	*	*	*
=7	=7	=7	=7	=7
8E/L 8EE/	8bb\L 8gg#\ 8dd\	.	8fff#\L	.
16r	16r	.	16r	.
16E/Jk 16EE/	16bb\Jk 16gg#\ 16dd\	.	16eee\Jk	.
*rep	*rep	*	*rep	*
8E/L 8EE/	8bb\L 8gg#\ 8dd\	.	8fff#\L	.
16r	16r	.	16r	.
16E/Jk 16EE/	16bb\Jk 16gg#\ 16dd\	.	16eee\Jk	.
*Xrep	*Xrep	*	*Xrep	*
*rep	*rep	*	*	*
8E/L 8EE/	8bb\L 8gg#\ 8dd\	.	16fff#\LL	.
.	.	.	16eee\	.
16r	16r	.	16ddd\	.
16E/Jk 16EE/	16bb\Jk 16gg#\ 16dd\	.	16ccc#\JJ	.
*Xrep	*Xrep	*	*	*
*rep	*rep	*	*	*
8E/L 8EE/	8bb\L 8gg#\ 8dd\	.	16bb\LL	.
.	.	.	16aa\	.
16r	16r	.	16gg#\	.
16E/Jk 16EE/	16bb\Jk 16gg#\ 16dd\	.	16bb\JJ	.
*Xrep	*Xrep	*	*	*
=8	=8	=8	=8	=8
4E/ 4EE/	4bb\ 4gg#\ 4dd\	.	4eee\	.
8.r	8.r	.	8.r	.
16E/ 16EE/	16gg#\ 16ee\ 16dd\ 16b\	.	16gg#\ 16b\	.
4E/ 4EE/	4gg#\ 4ee\ 4dd\ 4b\	.	4gg#\ 4b\	.
8.r	8.r	.	8.r	.
16E/ 16EE/	16bb\ 16gg#\ 16ee\ 16dd\	.	16bb\	.
=9	=9	=9	=9	=9
!	!	!	!	!LO:HP:a
4E/ 4EE/	4bb\ 4gg#\ 4ee\ 4dd\	.	1eee\	>]
4r	4r	.	.	.
2r	2r	.	.	.
==	==	==	==	==
*-	*-	*-	*-	*-
!!!system-decoration: {s1,<(s2,s3)>}
!!!AIN: 1 forte 1 violn
!!!ENC: Marcin Jachim
!!!END: 2021-09-02
!!!EED: Andrzej Borzym
!!!EST: 2021-09-26
